X: 25741
T: Mary O' The Wisp
R: reel
M: 4/4
K: Dmajor
Ad d2 efdB|Ad d2 efdB|ABde fAde|fage fddB|
Ad d2 efdB|Ad d2 efdB|ABde fAdB|1 cA A2 cA A2:|2 cA A2 cdeg||
faga faga|fage fdde|faga fefg|eA A2 efge|
faga faga|fage fefg|abag efed|1 cA A2 cdeg:|2 cA A2 cA A2||

